src/assets/images/ranks/team_silver_1.svg

<svg height="240" viewBox="0 0 160 240" width="160" xmlns="http://www.w3.org/2000/svg"><g fill="none" fill-rule="evenodd"><g transform="translate(22 43)"><g fill="#4d5758"><path d="m29 120h58v36l-29 19.440402-29-19.440402z"/><path d="m7 11.2148438c12-7.47656255 28.8333333-11.2148438 50.5-11.2148438s38.5 3.73828125 50.5 11.2148438l-10 43h-81z"/><path d="m57.8908968 20c25.600235 0 47.6341012 15.269441 57.4908632 37.197588-11.462965 2.7131966-19.9908632 13.0119056-19.9908632 25.302412 0 12.4329687 8.7267412 22.827698 20.3890422 25.393004-9.649112 22.414355-31.9364707 38.106996-57.8890422 38.106996-25.9525714 0-48.23993026-15.692641-57.8908968-38.106742 11.6643633-2.565808 20.3908968-12.9604375 20.3908968-25.393258 0-12.2903603-8.5276951-22.5889706-19.98890295-25.3016488 9.85480205-21.9289102 31.88866805-37.1983512 57.48890295-37.1983512z"/></g><path d="m57.3351398 26c21.1726207 0 39.6008874 11.7499764 49.1197402 29.0848696-10.138572 4.9573739-17.1197402 15.3709825-17.1197402 27.4151304 0 11.8699145 6.7806469 22.156124 16.6798212 27.196509-9.6367991 16.906127-27.8273116 28.303491-48.6798212 28.303491-21.0194875 0-39.3341751-11.580625-48.91180647-28.709619 9.48041927-5.172165 15.91180647-15.2302074 15.91180647-26.790381 0-11.7318989-6.6238817-21.9167073-16.33578779-27.0185679 9.45382619-17.551455 28.00160929-29.4814321 49.33578779-29.4814321z" fill="#000" opacity=".446382"/><path d="m46.9903313 124.558605c-6.3732334-2.483351-10.0444065-5.225505-11.2775261-6.118236-1.8214705-1.318675-3.9819271-3.293139-6.4813698-5.923392-.8209569-7.815664-1.2314354-14.1437072-1.2314354-18.9841299 0-4.8404226.4104785-12.5580234 1.2314354-23.1528022.5797291-.3198932 1.0016596-.4798398 1.2657914-.4798398.2641317 0 .6300164.1599466 1.097654.4798398.497646 1.259336.8446742 2.2079292 1.0410847 2.8457798.1964105.6378505.342516 1.2907275.4383164 1.9586311 2.8844786 1.0129504 5.2388816 1.700463 7.0632091 2.0625376 1.8243274.3620747 4.5891837.6905827 8.2945689.9855239 1.6268346-.3626394 2.7844579-.7418027 3.4728699-1.1374899.6884119-.3956872 1.2487513-1.0039788 1.681018-1.8248748l-1.2089802.6336936c-.536896-.8591013-1.0282473-1.4939031-1.474054-1.9044054-.4458067-.4105024-.8856603-.6331615-1.3195608-.6679773-5.4523264-.3568479-9.2434334-.7198245-11.3733209-1.0889296-2.1298875-.3691052-3.2333251-.7139109-3.3103128-1.0344174-1.4643389-1.2129432-2.5012027-2.1325974-3.1105916-2.7589626s-1.0166098-1.1910249-1.2216626-1.693979l5.3808434-22.707593c.3729928-1.1502796.6885056-1.9824183.9465384-2.4964162s.5269769-.8460896.8068324-.9962752c2.4852542-.870204 5.0472818-1.4763048 7.6860827-1.8183025 2.6388008-.3419977 6.8428803-.587527 12.6122382-.736588l.5912465.0157642c5.4661867.1503445 9.473184.3906191 12.0209917.7208238 2.6388009.3419977 5.2008285.9480985 7.6860827 1.8183025.2798555.1501856.5487996.4822773.8068324.9962752s.5735456 1.3461366.9465384 2.4964162l5.3808434 22.707593c-.2050528.5029541-.6122737 1.0676138-1.2216626 1.693979s-1.6462527 1.5460194-3.1105916 2.7589626c-.0769877.3205065-1.1804253.6653122-3.3103128 1.0344174-2.1298875.3691051-5.9209945.7320817-11.3733209 1.0889296-.4339005.0348158-.8737541.2574749-1.3195608.6679773-.4458067.4105023-.937158 1.0453041-1.474054 1.9044054l-1.2089802-.6336936c.4322667.820896.9926061 1.4291876 1.681018 1.8248748.688412.3956872 1.8460353.7748505 3.4728699 1.1374899 3.7053852-.2949412 6.4702415-.6234492 8.2945689-.9855239 1.8243275-.3620746 4.1787305-1.0495872 7.0632091-2.0625376.0958004-.6679036.2419059-1.3207806.4383164-1.9586311.1964105-.6378506.5434387-1.5864438 1.0410847-2.8457798.4676376-.3198932.8335223-.4798398 1.097654-.4798398.2641318 0 .6860623.1599466 1.2657914.4798398.8209569 10.5947788 1.2314354 18.3123796 1.2314354 23.1528022 0 4.8404227-.4104785 11.1684659-1.2314354 18.9841299-2.4994427 2.630253-4.6598993 4.604717-6.4813698 5.923392-1.2331196.892731-4.9042927 3.634885-11.2775261 6.118236-2.0272147.78991-5.6971043 1.603709-11.0096687 2.441395-5.3125644-.837686-8.982454-1.651485-11.0096687-2.441395zm7.452589-6.474917c-1.0397398.006885-1.7675946.140394-2.1835645.400528-.3244947.202927-1.0626328.828519-1.4821632 1.929091-.0788438.206835-.0788438.561473 0 1.063915.4476492.780415 1.0559677 1.304687 1.8249555 1.572817.7689878.268129 1.8847612.270676 3.34732.007641l.0358024-1.580458c-.1122183-.707135-.2558771-1.253333-.4309763-1.638592-.1750992-.38526-.5455572-.97024-1.1113739-1.754942zm7.1141594 0c-.5658167.784702-.9362747 1.369682-1.1113739 1.754942-.1750992.385259-.318758.931457-.4309763 1.638592l.0358024 1.580458c1.4625588.263035 2.5783322.260488 3.34732-.007641.7689878-.26813 1.3773063-.792402 1.8249555-1.572817.0788438-.502442.0788438-.85708 0-1.063915-.4195304-1.100572-1.1576685-1.726164-1.4821632-1.929091-.4159699-.260134-1.1438247-.393643-2.1835645-.400528z" fill="#d6d6d6"/></g><path d="m15 0 15 21-15 21-15-21z" fill="#d8d8d8" transform="translate(65 8)"/></g></svg>

<?xml version="1.0" encoding="UTF-8"?>
<svg width="160px" height="240px" viewBox="0 0 160 240" version="1.1" xmlns="http://www.w3.org/2000/svg" xmlns:xlink="http://www.w3.org/1999/xlink">
    <title>team_silver_1</title>
    <g id="team_silver_1" stroke="none" stroke-width="1" fill="none" fill-rule="evenodd">
        <g id="Group-13" transform="translate(22.000000, 43.000000)">
            <polygon id="Rectangle-Copy-72" fill="#4D5758" points="29 120 87 120 87 156 58 175.440402 29 156"></polygon>
            <path d="M7,11.2148438 C19,3.73828125 35.8333333,0 57.5,0 C79.1666667,0 96,3.73828125 108,11.2148438 L98,54.2148438 L17,54.2148438 L7,11.2148438 Z" id="Rectangle-Copy-77" fill="#4D5758"></path>
            <path d="M57.8908968,20 C83.4911318,20 105.524998,35.269441 115.38176,57.197588 C103.918795,59.9107846 95.3908968,70.2094936 95.3908968,82.5 C95.3908968,94.9329687 104.117638,105.327698 115.779939,107.893004 C106.130827,130.307359 83.8434683,146 57.8908968,146 C31.9383254,146 9.65096654,130.307359 -1.26094193e-14,107.893258 C11.6643633,105.32745 20.3908968,94.9328205 20.3908968,82.5 C20.3908968,70.2096397 11.8632017,59.9110294 0.401993845,57.1983512 C10.2567959,35.269441 32.2906619,20 57.8908968,20 Z" id="Combined-Shape-Copy-23" fill="#4D5758"></path>
            <path d="M57.3351398,26 C78.5077605,26 96.9360272,37.7499764 106.45488,55.0848696 C96.316308,60.0422435 89.3351398,70.4558521 89.3351398,82.5 C89.3351398,94.3699145 96.1157867,104.656124 106.014961,109.696509 C96.3781619,126.602636 78.1876494,138 57.3351398,138 C36.3156523,138 18.0009647,126.419375 8.42333333,109.290381 C17.9037526,104.118216 24.3351398,94.0601736 24.3351398,82.5 C24.3351398,70.7681011 17.7112581,60.5832927 7.99935201,55.4814321 C17.4531782,37.9299771 36.0009613,26 57.3351398,26 Z" id="Combined-Shape-Copy-24" fill="#000000" opacity="0.446382068"></path>
            <path d="M46.9903313,124.558605 C40.6170979,122.075254 36.9459248,119.3331 35.7128052,118.440369 C33.8913347,117.121694 31.7308781,115.14723 29.2314354,112.516977 C28.4104785,104.701313 28,98.3732698 28,93.5328471 C28,88.6924245 28.4104785,80.9748237 29.2314354,70.3800449 C29.8111645,70.0601517 30.233095,69.9002051 30.4972268,69.9002051 C30.7613585,69.9002051 31.1272432,70.0601517 31.5948808,70.3800449 C32.0925268,71.6393809 32.439555,72.5879741 32.6359655,73.2258247 C32.832376,73.8636752 32.9784815,74.5165522 33.0742819,75.1844558 C35.9587605,76.1974062 38.3131635,76.8849188 40.137491,77.2469934 C41.9618184,77.6090681 44.7266747,77.9375761 48.4320599,78.2325173 C50.0588945,77.8698779 51.2165178,77.4907146 51.9049298,77.0950274 C52.5933417,76.6993402 53.1536811,76.0910486 53.5859478,75.2701526 L52.3769676,75.9038462 C51.8400716,75.0447449 51.3487203,74.4099431 50.9029136,73.9994408 C50.4571069,73.5889384 50.0172533,73.3662793 49.5833528,73.3314635 C44.1310264,72.9746156 40.3399194,72.611639 38.2100319,72.2425339 C36.0801444,71.8734287 34.9767068,71.528623 34.8997191,71.2081165 C33.4353802,69.9951733 32.3985164,69.0755191 31.7891275,68.4491539 C31.1797386,67.8227887 30.7725177,67.258129 30.5674649,66.7551749 L35.9483083,44.0475819 C36.3213011,42.8973023 36.6368139,42.0651636 36.8948467,41.5511657 C37.1528795,41.0371678 37.4218236,40.7050761 37.7016791,40.5548905 C40.1869333,39.6846865 42.7489609,39.0785857 45.3877618,38.736588 C48.0265626,38.3945903 52.2306421,38.149061 58,38 L58.5912465,38.0157642 C64.0574332,38.1661087 68.0644305,38.4063833 70.6122382,38.736588 C73.2510391,39.0785857 75.8130667,39.6846865 78.2983209,40.5548905 C78.5781764,40.7050761 78.8471205,41.0371678 79.1051533,41.5511657 C79.3631861,42.0651636 79.6786989,42.8973023 80.0516917,44.0475819 L85.4325351,66.7551749 C85.2274823,67.258129 84.8202614,67.8227887 84.2108725,68.4491539 C83.6014836,69.0755191 82.5646198,69.9951733 81.1002809,71.2081165 C81.0232932,71.528623 79.9198556,71.8734287 77.7899681,72.2425339 C75.6600806,72.611639 71.8689736,72.9746156 66.4166472,73.3314635 C65.9827467,73.3662793 65.5428931,73.5889384 65.0970864,73.9994408 C64.6512797,74.4099431 64.1599284,75.0447449 63.6230324,75.9038462 L62.4140522,75.2701526 C62.8463189,76.0910486 63.4066583,76.6993402 64.0950702,77.0950274 C64.7834822,77.4907146 65.9411055,77.8698779 67.5679401,78.2325173 C71.2733253,77.9375761 74.0381816,77.6090681 75.862509,77.2469934 C77.6868365,76.8849188 80.0412395,76.1974062 82.9257181,75.1844558 C83.0215185,74.5165522 83.167624,73.8636752 83.3640345,73.2258247 C83.560445,72.5879741 83.9074732,71.6393809 84.4051192,70.3800449 C84.8727568,70.0601517 85.2386415,69.9002051 85.5027732,69.9002051 C85.766905,69.9002051 86.1888355,70.0601517 86.7685646,70.3800449 C87.5895215,80.9748237 88,88.6924245 88,93.5328471 C88,98.3732698 87.5895215,104.701313 86.7685646,112.516977 C84.2691219,115.14723 82.1086653,117.121694 80.2871948,118.440369 C79.0540752,119.3331 75.3829021,122.075254 69.0096687,124.558605 C66.982454,125.348515 63.3125644,126.162314 58,127 C52.6874356,126.162314 49.017546,125.348515 46.9903313,124.558605 Z M54.4429203,118.083688 C53.4031805,118.090573 52.6753257,118.224082 52.2593558,118.484216 C51.9348611,118.687143 51.196723,119.312735 50.7771926,120.413307 C50.6983488,120.620142 50.6983488,120.97478 50.7771926,121.477222 C51.2248418,122.257637 51.8331603,122.781909 52.6021481,123.050039 C53.3711359,123.318168 54.4869093,123.320715 55.9494681,123.05768 L55.9852705,121.477222 C55.8730522,120.770087 55.7293934,120.223889 55.5542942,119.83863 C55.379195,119.45337 55.008737,118.86839 54.4429203,118.083688 Z M61.5570797,118.083688 C60.991263,118.86839 60.620805,119.45337 60.4457058,119.83863 C60.2706066,120.223889 60.1269478,120.770087 60.0147295,121.477222 L60.0505319,123.05768 C61.5130907,123.320715 62.6288641,123.318168 63.3978519,123.050039 C64.1668397,122.781909 64.7751582,122.257637 65.2228074,121.477222 C65.3016512,120.97478 65.3016512,120.620142 65.2228074,120.413307 C64.803277,119.312735 64.0651389,118.687143 63.7406442,118.484216 C63.3246743,118.224082 62.5968195,118.090573 61.5570797,118.083688 Z" id="Combined-Shape-Copy-27" fill="#D6D6D6"></path>
        </g>
        <g id="Group-3-Copy-11" transform="translate(65.000000, 8.000000)" fill="#D8D8D8">
            <polygon id="Polygon-Copy-47" points="15 0 30 21 15 42 0 21"></polygon>
        </g>
    </g>
</svg>
